local/share/icons/dracula-icons-main/scalable/mimetypes/image-vnd.dgn.svg

<?xml version="1.0" encoding="UTF-8"?>
<svg xmlns="http://www.w3.org/2000/svg" xmlns:xlink="http://www.w3.org/1999/xlink" width="64" height="64" viewBox="0 0 64 64">
<defs>
<filter id="filter-remove-color" x="0%" y="0%" width="100%" height="100%">
<feColorMatrix color-interpolation-filters="sRGB" values="0 0 0 0 1 0 0 0 0 1 0 0 0 0 1 0 0 0 1 0" />
</filter>
<mask id="mask-0">
<g filter="url(#filter-remove-color)">
<rect x="-6.4" y="-6.4" width="76.8" height="76.8" fill="rgb(0%, 0%, 0%)" fill-opacity="0.15"/>
</g>
</mask>
<linearGradient id="linear-pattern-0" gradientUnits="userSpaceOnUse" x1="49.570999" y1="52.714001" x2="51.714001" y2="54.856998" gradientTransform="matrix(0, 2.3333, 2.3333, 0, -72.001226, -68.667227)">
<stop offset="0" stop-color="rgb(0%, 0%, 0%)" stop-opacity="1"/>
<stop offset="1" stop-color="rgb(0%, 0%, 0%)" stop-opacity="0"/>
</linearGradient>
<clipPath id="clip-0">
<rect x="0" y="0" width="64" height="64"/>
</clipPath>
<g id="source-10460" clip-path="url(#clip-0)">
<path fill-rule="evenodd" fill="url(#linear-pattern-0)" d="M 46 56 L 60 42 L 60 51 C 60 53.769531 57.769531 56 55 56 Z M 46 56 "/>
</g>
<mask id="mask-1">
<g filter="url(#filter-remove-color)">
<rect x="-6.4" y="-6.4" width="76.8" height="76.8" fill="rgb(0%, 0%, 0%)" fill-opacity="0.75"/>
</g>
</mask>
<clipPath id="clip-1">
<rect x="0" y="0" width="64" height="64"/>
</clipPath>
<g id="source-10464" clip-path="url(#clip-1)">
<path fill-rule="nonzero" fill="rgb(100%, 100%, 100%)" fill-opacity="1" d="M 30 21 L 30 25 L 34 25 L 34 21 Z M 31 22 L 33 22 L 33 24 L 31 24 Z M 29.335938 23.257812 L 27.402344 23.777344 L 27.664062 24.742188 L 29.597656 24.226562 Z M 26.335938 24.257812 L 24.402344 24.777344 L 24.664062 25.742188 L 26.597656 25.226562 Z M 35 24.53125 L 35 25.566406 L 41.144531 27.214844 L 35 28.96875 L 35 42.996094 L 35.027344 42.996094 L 43 40.71875 L 43 26.660156 Z M 23 25 C 22.449219 25 22 25.449219 22 26 C 22 26.550781 22.449219 27 23 27 C 23.550781 27 24 26.550781 24 26 C 24 25.449219 23.550781 25 23 25 M 21 27 L 21 41 L 33 43 L 33 29 Z M 42 28.011719 L 42 39.3125 L 36 37.703125 L 36 29.726562 Z M 36 38.738281 L 41.320312 40.164062 L 36 41.683594 Z M 36 38.738281 "/>
</g>
</defs>
<path fill-rule="nonzero" fill="rgb(18.823529%, 59.215686%, 95.686275%)" fill-opacity="1" d="M 4 13 L 4 51 C 4 53.761719 6.238281 56 9 56 L 55 56 C 57.761719 56 60 53.761719 60 51 L 60 13 C 60 10.238281 57.761719 8 55 8 L 9 8 C 6.238281 8 4 10.238281 4 13 Z M 4 13 "/>
<g mask="url(#mask-0)">
<use xlink:href="#source-10460"/>
</g>
<g mask="url(#mask-1)">
<use xlink:href="#source-10464"/>
</g>
</svg>

<svg width="64" height="64" version="1.1" viewBox="0 0 64 64" xmlns="http://www.w3.org/2000/svg">
 <defs>
  <linearGradient id="a" x1="49.571" x2="51.714" y1="52.714" y2="54.857" gradientTransform="matrix(2.3333,0,0,2.3333,-68.667,-72.001)" gradientUnits="userSpaceOnUse">
   <stop offset="0"/>
   <stop stop-opacity="0" offset="1"/>
  </linearGradient>
 </defs>
 <g transform="matrix(0 1 1 0 -.0002268 -.0002268)">
  <rect x="8" y="4" width="48" height="56" ry="5" fill="#3097f4" style="paint-order:stroke fill markers"/>
  <path d="m56 46-14 14h9c2.77 0 5-2.23 5-5z" fill="url(#a)" fill-rule="evenodd" opacity=".15" stroke-width="8.8191" style="paint-order:stroke fill markers"/>
 </g>
 <path d="m30 21v4h4v-4zm1 1h2v2h-2zm-1.664 1.258-1.932 0.518 0.26 0.967 1.932-0.518zm-3 1-1.932 0.518 0.26 0.967 1.932-0.518zm8.664 0.275v1.035l6.143 1.645-6.143 1.754v14.03h0.029l7.971-2.277v-14.06zm-12 0.4668a1 1 0 0 0-1 1 1 1 0 0 0 1 1 1 1 0 0 0 1-1 1 1 0 0 0-1-1m-2 2v14l12 2v-14zm21 1.01v11.303l-6-1.609v-7.979zm-6 10.729 5.322 1.426-5.322 1.52z" color="#000000" color-rendering="auto" fill="#fff" image-rendering="auto" opacity=".75" shape-rendering="auto" solid-color="#000000" stroke-width="2" style="isolation:auto;mix-blend-mode:normal"/>
</svg>
